X: 0
T: Take Me In Thine Arms
Z: Rev. R. F. Smith
Z: Copyright © 2004 by Douglas D. Anderson
Z: Released To The Public Domain
L: 1/4
M: 4/4
Q: 1/4=160
V: P1 name="Staff"
%%MIDI program 1 19
K: Eb
[V: P1]  G2 c2 B2 G2 | E2 (B A) G2 F2 | E2 F2 (G =A) B2 | c2 (d c) B4 | G2 c2 B2 e2 | d2 c2 (B G) E2 | A2 G2 (A c) (B G) | F2 (G F) E4|]
w: Take me in Thine Arms and_ bless me, Gen- tle Je-_ sus, ere I_ sleep; Through this day Thine eye has watched_ me, Now my soul_ and_ bo- dy_ keep.

